; generated by Slic3r 1.2.9 on 2017-07-28 at 15:59:24

; external perimeters extrusion width = 0.50mm
; perimeters extrusion width = 0.52mm
; infill extrusion width = 0.52mm
; solid infill extrusion width = 0.52mm
; top infill extrusion width = 0.52mm

M107
M104 S205 ; set temperature
G28 ; home all axes
G1 Z5 F5000 ; lift nozzle

M109 S205 ; wait for temperature to be reached
G21 ; set units to millimeters
G90 ; use absolute coordinates
M82 ; use absolute distances for extrusion
G92 E0
G1 Z0.500 F7800.000
G1 E-2.00000 F2400.00000
G92 E0
G1 X85.629 Y85.629 F7800.000
G1 E2.00000 F2400.00000
G1 X86.157 Y85.115 E2.41889 F1800.000
G1 X86.983 Y84.387 E3.04453
G1 X87.848 Y83.706 E3.67017
G1 X88.748 Y83.072 E4.29581
G1 X89.681 Y82.487 E4.92146
G1 X90.644 Y81.954 E5.54710
G1 X91.635 Y81.474 E6.17275
G1 X92.650 Y81.048 E6.79839
G1 X93.687 Y80.678 E7.42403
G1 X94.742 Y80.365 E8.04969
G1 X95.448 Y80.189 E8.46324
G1 X96.527 Y79.972 E9.08887
G1 X97.617 Y79.813 E9.71450
G1 X98.713 Y79.714 E10.34014
G1 X99.813 Y79.674 E10.96581
G1 X100.914 Y79.694 E11.59143
G1 X102.383 Y79.813 E12.42914 F1800.000
G1 X103.473 Y79.972 E13.05477
G1 X104.187 Y80.109 E13.46831
G1 X105.618 Y80.465 E14.30601
G1 X106.313 Y80.678 E14.71956
G1 X107.350 Y81.048 E15.34520
G1 X108.704 Y81.631 E16.18288
G1 X109.686 Y82.129 E16.80854
G1 X110.639 Y82.680 E17.43417
G1 X111.252 Y83.072 E17.84771
G1 X112.152 Y83.706 E18.47337
G1 X113.301 Y84.629 E19.31105
G1 X114.114 Y85.372 E19.93670
G1 X114.628 Y85.886 E20.35025
G1 X115.613 Y86.983 E21.18794
G1 X116.294 Y87.848 E21.81357
G1 X116.928 Y88.748 E22.43921
G1 X117.320 Y89.361 E22.85276
G1 X117.871 Y90.314 E23.47839
G1 X118.526 Y91.635 E24.31610
G1 X118.813 Y92.303 E24.72964
G1 X119.203 Y93.333 E25.35528
G1 X119.635 Y94.742 E26.19300
G1 X119.891 Y95.813 E26.81861
G1 X120.089 Y96.896 E27.44425
G1 X120.187 Y97.617 E27.85780
G1 X120.286 Y98.713 E28.48346
G1 X120.326 Y100.187 E29.32114
G1 X120.286 Y101.287 E29.94678
G1 X120.227 Y102.012 E30.36032
G1 X120.028 Y103.473 E31.19802
G1 X119.891 Y104.187 E31.61157
G1 X119.635 Y105.258 E32.23719
G1 X119.203 Y106.667 E33.07490
G1 X118.813 Y107.697 E33.70054
G1 X118.369 Y108.704 E34.32617
G1 X118.046 Y109.356 E34.73972
G1 X117.513 Y110.319 E35.36539
G1 X116.719 Y111.561 E36.20307
G1 X116.294 Y112.152 E36.61661
G1 X115.613 Y113.017 E37.24224
G1 X114.628 Y114.114 E38.07994
G1 X114.114 Y114.628 E38.49348
G1 X113.301 Y115.371 E39.11913
G1 X112.152 Y116.294 E39.95682
G1 X111.252 Y116.928 E40.58246
G1 X110.319 Y117.513 E41.20810
G1 X109.686 Y117.871 E41.62164
G1 X108.704 Y118.369 E42.24731
G1 X107.350 Y118.952 E43.08497
G1 X106.667 Y119.203 E43.49852
G1 X105.618 Y119.535 E44.12417
G1 X104.187 Y119.891 E44.96186
G1 X103.473 Y120.028 E45.37541
G1 X102.383 Y120.187 E46.00104
G1 X100.914 Y120.306 E46.83874
G1 X100.187 Y120.326 E47.25228
G1 X99.086 Y120.306 E47.87794
G1 X97.617 Y120.187 E48.71564
G1 X96.527 Y120.028 E49.34127
G1 X95.448 Y119.811 E49.96689
G1 X94.742 Y119.635 E50.38043
G1 X93.687 Y119.322 E51.00610
G1 X92.650 Y118.952 E51.63175
G1 X91.635 Y118.526 E52.25738
G1 X90.314 Y117.871 E53.09509
G1 X89.681 Y117.513 E53.50863
G1 X88.748 Y116.928 E54.13427
G1 X87.551 Y116.069 E54.97194
G1 X86.983 Y115.613 E55.38549
G1 X86.157 Y114.885 E56.01115
G1 X85.115 Y113.843 E56.84883
G1 X84.629 Y113.301 E57.26238
G1 X83.931 Y112.449 E57.88803
G1 X83.072 Y111.252 E58.72571
G1 X82.680 Y110.639 E59.13926
G1 X82.129 Y109.686 E59.76489
G1 X81.474 Y108.365 E60.60258
G1 X81.187 Y107.697 E61.01613
G1 X80.797 Y106.667 E61.64178
G1 X80.365 Y105.258 E62.47947
G1 X80.109 Y104.187 E63.10512
G1 X79.972 Y103.473 E63.51866
G1 X79.813 Y102.383 E64.14429
G1 X79.714 Y101.287 E64.76993
G1 X79.674 Y99.813 E65.60762
G1 X79.694 Y99.086 E66.02117
G1 X79.773 Y97.988 E66.64683
G1 X79.972 Y96.527 E67.48451
G1 X80.109 Y95.813 E67.89806
G1 X80.365 Y94.742 E68.52369
G1 X80.797 Y93.333 E69.36139
G1 X81.187 Y92.303 E69.98704
G1 X81.631 Y91.296 E70.61267
G1 X81.954 Y90.644 E71.02621
G1 X82.487 Y89.681 E71.65187
G1 X83.281 Y88.439 E72.48956
G1 X83.706 Y87.848 E72.90310
G1 X84.387 Y86.983 E73.52874
G1 X85.115 Y86.157 E74.15439
G1 X85.576 Y85.682 E74.53065
G1 E72.53065 F2400.00000
G92 E0
G1 X107.881 Y107.881 F7800.000
G1 E2.00000 F2400.00000
G1 X107.218 Y108.498 E2.51460 F1800.000
G1 X106.748 Y108.876 E2.85777
G1 X106.257 Y109.229 E3.20095
G1 X105.748 Y109.554 E3.54413
G1 X105.223 Y109.851 E3.88731
G1 X104.682 Y110.119 E4.23048
G1 X104.127 Y110.358 E4.57366
G1 X103.560 Y110.566 E4.91684
G1 X102.983 Y110.743 E5.26001
G1 X102.397 Y110.889 E5.60319
G1 X101.804 Y111.003 E5.94637
G1 X101.205 Y111.084 E6.28955
G1 X100.604 Y111.133 E6.63272
G1 X100.000 Y111.150 E6.97590
G1 X99.396 Y111.133 E7.31908
G1 X98.795 Y111.084 E7.66225
G1 X98.196 Y111.003 E8.00543
G1 X97.603 Y110.889 E8.34861
G1 X97.017 Y110.743 E8.69178
G1 X96.440 Y110.566 E9.03496
G1 X95.873 Y110.358 E9.37814
G1 X95.318 Y110.119 E9.72132
G1 X94.777 Y109.851 E10.06449
G1 X94.252 Y109.554 E10.40767
G1 X93.743 Y109.229 E10.75085
G1 X93.252 Y108.876 E11.09402
G1 X92.782 Y108.498 E11.43720
G1 X92.332 Y108.095 E11.78038
G1 X91.905 Y107.668 E12.12355
G1 X91.502 Y107.218 E12.46673
G1 X91.124 Y106.748 E12.80991
G1 X90.771 Y106.257 E13.15308
G1 X90.446 Y105.748 E13.49626
G1 X90.149 Y105.223 E13.83944
G1 X89.881 Y104.682 E14.18262
G1 X89.642 Y104.127 E14.52579
G1 X89.434 Y103.560 E14.86897
G1 X89.257 Y102.983 E15.21215
G1 X89.111 Y102.397 E15.55532
G1 X88.997 Y101.804 E15.89850
G1 X88.916 Y101.205 E16.24168
G1 X88.867 Y100.604 E16.58485
G1 X88.850 Y100.000 E16.92803
G1 X88.867 Y99.396 E17.27121
G1 X88.916 Y98.795 E17.61438
G1 X88.997 Y98.196 E17.95756
G1 X89.111 Y97.603 E18.30074
G1 X89.257 Y97.017 E18.64392
G1 X89.434 Y96.440 E18.98709
G1 X89.642 Y95.873 E19.33027
G1 X89.881 Y95.318 E19.67345
G1 X90.149 Y94.777 E20.01663
G1 X90.446 Y94.252 E20.35980
G1 X90.771 Y93.743 E20.70298
G1 X91.124 Y93.252 E21.04616
G1 X91.502 Y92.782 E21.38933
G1 X91.905 Y92.332 E21.73251
G1 X92.332 Y91.905 E22.07569
G1 X92.782 Y91.502 E22.41886
G1 X93.252 Y91.124 E22.76204
G1 X93.743 Y90.771 E23.10522
G1 X94.252 Y90.446 E23.44839
G1 X94.777 Y90.149 E23.79157
G1 X95.318 Y89.881 E24.13475
G1 X95.873 Y89.642 E24.47792
G1 X96.440 Y89.434 E24.82110
G1 X97.017 Y89.257 E25.16428
G1 X97.603 Y89.111 E25.50745
G1 X98.196 Y88.997 E25.85063
G1 X98.795 Y88.916 E26.19381
G1 X99.396 Y88.867 E26.53699
G1 X99.969 Y88.851 E26.86255
G1 X100.301 Y88.869 E27.05178
G1 X100.635 Y88.869 E27.24104 F1800.000
G1 X101.205 Y88.916 E27.56660
G1 X101.804 Y88.997 E27.90978
G1 X102.397 Y89.111 E28.25296
G1 X102.983 Y89.257 E28.59614
G1 X103.560 Y89.434 E28.93931
G1 X104.127 Y89.642 E29.28249
G1 X104.682 Y89.881 E29.62567
G1 X105.223 Y90.149 E29.96884
G1 X105.748 Y90.446 E30.31202
G1 X106.257 Y90.771 E30.65520
G1 X106.748 Y91.124 E30.99837
G1 X107.218 Y91.502 E31.34155
G1 X107.668 Y91.905 E31.68473
G1 X108.095 Y92.332 E32.02790
G1 X108.498 Y92.782 E32.37108
G1 X108.876 Y93.252 E32.71426
G1 X109.229 Y93.743 E33.05744
G1 X109.554 Y94.252 E33.40062
G1 X109.851 Y94.777 E33.74379
G1 X110.119 Y95.318 E34.08696
G1 X110.358 Y95.873 E34.43014
G1 X110.566 Y96.440 E34.77332
G1 X110.743 Y97.017 E35.11650
G1 X110.889 Y97.603 E35.45967
G1 X111.003 Y98.196 E35.80286
G1 X111.084 Y98.795 E36.14603
G1 X111.133 Y99.396 E36.48921
G1 X111.150 Y100.000 E36.83238
G1 X111.133 Y100.604 E37.17556
G1 X111.084 Y101.205 E37.51874
G1 X111.003 Y101.804 E37.86191
G1 X110.889 Y102.397 E38.20510
G1 X110.743 Y102.983 E38.54827
G1 X110.566 Y103.560 E38.89145
G1 X110.358 Y104.127 E39.23462
G1 X110.119 Y104.682 E39.57780
G1 X109.851 Y105.223 E39.92098
G1 X109.554 Y105.748 E40.26415
G1 X109.229 Y106.257 E40.60733
G1 X108.876 Y106.748 E40.95051
G1 X108.498 Y107.218 E41.29369
G1 X107.934 Y107.828 E41.76569
G1 X108.512 Y108.512 F7800.000
G1 X107.796 Y109.179 E42.32150 F1800.000
G1 X107.288 Y109.587 E42.69217
G1 X106.758 Y109.968 E43.06283
G1 X106.209 Y110.319 E43.43350
G1 X105.641 Y110.640 E43.80416
G1 X105.057 Y110.930 E44.17482
G1 X104.457 Y111.187 E44.54548
G1 X103.845 Y111.412 E44.91615
G1 X103.222 Y111.604 E45.28681
G1 X102.589 Y111.761 E45.65747
G1 X101.948 Y111.884 E46.02814
G1 X101.302 Y111.972 E46.39880
G1 X100.652 Y112.025 E46.76946
G1 X100.000 Y112.043 E47.14013
G1 X99.348 Y112.025 E47.51079
G1 X98.698 Y111.972 E47.88145
G1 X98.052 Y111.884 E48.25212
G1 X97.411 Y111.761 E48.62278
G1 X96.778 Y111.604 E48.99345
G1 X96.155 Y111.412 E49.36411
G1 X95.543 Y111.187 E49.73477
G1 X94.943 Y110.930 E50.10544
G1 X94.359 Y110.640 E50.47610
G1 X93.791 Y110.319 E50.84676
G1 X93.242 Y109.968 E51.21742
G1 X92.712 Y109.587 E51.58809
G1 X92.204 Y109.179 E51.95875
G1 X91.718 Y108.743 E52.32942
G1 X91.257 Y108.282 E52.70008
G1 X90.821 Y107.796 E53.07074
G1 X90.413 Y107.288 E53.44141
G1 X90.032 Y106.758 E53.81207
G1 X89.681 Y106.209 E54.18273
G1 X89.360 Y105.641 E54.55340
G1 X89.070 Y105.057 E54.92406
G1 X88.813 Y104.457 E55.29472
G1 X88.588 Y103.845 E55.66539
G1 X88.396 Y103.222 E56.03605
G1 X88.239 Y102.589 E56.40671
G1 X88.116 Y101.948 E56.77738
G1 X88.028 Y101.302 E57.14804
G1 X87.975 Y100.652 E57.51870
G1 X87.957 Y100.000 E57.88937
G1 X87.975 Y99.348 E58.26003
G1 X88.028 Y98.698 E58.63069
G1 X88.116 Y98.052 E59.00136
G1 X88.239 Y97.411 E59.37202
G1 X88.396 Y96.778 E59.74268
G1 X88.588 Y96.155 E60.11335
G1 X88.813 Y95.543 E60.48401
G1 X89.070 Y94.943 E60.85467
G1 X89.360 Y94.359 E61.22534
G1 X89.681 Y93.791 E61.59600
G1 X90.032 Y93.242 E61.96666
G1 X90.413 Y92.712 E62.33733
G1 X90.821 Y92.204 E62.70799
G1 X91.257 Y91.718 E63.07866
G1 X91.718 Y91.257 E63.44932
G1 X92.204 Y90.821 E63.81998
G1 X92.712 Y90.413 E64.19064
G1 X93.242 Y90.032 E64.56131
G1 X93.791 Y89.681 E64.93197
G1 X94.359 Y89.360 E65.30264
G1 X94.943 Y89.070 E65.67330
G1 X95.543 Y88.813 E66.04396
G1 X96.155 Y88.588 E66.41463
G1 X96.778 Y88.396 E66.78529
G1 X97.411 Y88.239 E67.15595
G1 X98.052 Y88.116 E67.52662
G1 X98.698 Y88.028 E67.89728
G1 X99.348 Y87.975 E68.26794
G1 X99.981 Y87.958 E68.62787
G1 X100.326 Y87.976 E68.82397
G1 X100.671 Y87.976 E69.02011 F1800.000
G1 X101.302 Y88.028 E69.38004
G1 X101.948 Y88.116 E69.75071
G1 X102.589 Y88.239 E70.12137
G1 X103.222 Y88.396 E70.49204
G1 X103.845 Y88.588 E70.86270
G1 X104.457 Y88.813 E71.23336
G1 X105.057 Y89.070 E71.60403
G1 X105.641 Y89.360 E71.97469
G1 X106.209 Y89.681 E72.34535
G1 X106.758 Y90.032 E72.71602
G1 X107.288 Y90.413 E73.08668
G1 X107.796 Y90.821 E73.45734
G1 X108.282 Y91.257 E73.82801
G1 X108.743 Y91.718 E74.19867
G1 X109.179 Y92.204 E74.56933
G1 X109.587 Y92.712 E74.94000
G1 X109.968 Y93.242 E75.31066
G1 X110.319 Y93.791 E75.68132
G1 X110.640 Y94.359 E76.05199
G1 X110.930 Y94.943 E76.42265
G1 X111.187 Y95.543 E76.79331
G1 X111.412 Y96.155 E77.16398
G1 X111.604 Y96.778 E77.53464
G1 X111.761 Y97.411 E77.90530
G1 X111.884 Y98.052 E78.27597
G1 X111.972 Y98.698 E78.64663
G1 X112.025 Y99.348 E79.01729
G1 X112.043 Y100.000 E79.38796
G1 X112.025 Y100.652 E79.75862
G1 X111.972 Y101.302 E80.12928
G1 X111.884 Y101.948 E80.49995
G1 X111.761 Y102.589 E80.87061
G1 X111.604 Y103.222 E81.24128
G1 X111.412 Y103.845 E81.61194
G1 X111.187 Y104.457 E81.98260
G1 X110.930 Y105.057 E82.35327
G1 X110.640 Y105.641 E82.72393
G1 X110.319 Y106.209 E83.09459
G1 X109.968 Y106.758 E83.46526
G1 X109.587 Y107.288 E83.83592
G1 X109.179 Y107.796 E84.20658
G1 X108.565 Y108.459 E84.71980
G1 X109.144 Y109.144 F7800.000
G1 X108.896 Y109.391 E84.91888 F1800.000
G1 X108.374 Y109.859 E85.31703
G1 X107.828 Y110.298 E85.71518
G1 X107.259 Y110.707 E86.11333
G1 X106.669 Y111.084 E86.51148
G1 X106.059 Y111.429 E86.90963
G1 X105.432 Y111.740 E87.30778
G1 X104.788 Y112.017 E87.70593
G1 X104.130 Y112.259 E88.10408
G1 X103.461 Y112.464 E88.50223
G1 X102.781 Y112.633 E88.90037
G1 X102.093 Y112.765 E89.29853
G1 X101.399 Y112.860 E89.69668
G1 X100.700 Y112.917 E90.09483
G1 X100.000 Y112.936 E90.49298
G1 X99.300 Y112.917 E90.89113
G1 X98.601 Y112.860 E91.28928
G1 X97.907 Y112.765 E91.68743
G1 X97.219 Y112.633 E92.08558
G1 X96.539 Y112.464 E92.48373
G1 X95.870 Y112.259 E92.88187
G1 X95.212 Y112.017 E93.28003
G1 X94.568 Y111.740 E93.67817
G1 X93.941 Y111.429 E94.07632
G1 X93.331 Y111.084 E94.47447
G1 X92.741 Y110.707 E94.87262
G1 X92.172 Y110.298 E95.27077
G1 X91.626 Y109.859 E95.66892
G1 X91.104 Y109.391 E96.06707
G1 X90.609 Y108.896 E96.46522
G1 X90.141 Y108.374 E96.86337
G1 X89.702 Y107.828 E97.26152
G1 X89.293 Y107.259 E97.65967
G1 X88.916 Y106.669 E98.05782
G1 X88.571 Y106.059 E98.45597
G1 X88.260 Y105.432 E98.85412
G1 X87.983 Y104.788 E99.25227
G1 X87.741 Y104.130 E99.65042
G1 X87.536 Y103.461 E100.04857
G1 X87.367 Y102.781 E100.44672
G1 X87.235 Y102.093 E100.84487
G1 X87.140 Y101.399 E101.24302
G1 X87.083 Y100.700 E101.64117
G1 X87.064 Y100.000 E102.03932
G1 X87.083 Y99.300 E102.43747
G1 X87.140 Y98.601 E102.83562
G1 X87.235 Y97.907 E103.23377
G1 X87.367 Y97.219 E103.63192
G1 X87.536 Y96.539 E104.03007
G1 X87.741 Y95.870 E104.42822
G1 X87.983 Y95.212 E104.82637
G1 X88.260 Y94.568 E105.22452
G1 X88.571 Y93.941 E105.62267
G1 X88.916 Y93.331 E106.02082
G1 X89.293 Y92.741 E106.41897
G1 X89.702 Y92.172 E106.81712
G1 X90.141 Y91.626 E107.21527
G1 X90.609 Y91.104 E107.61342
G1 X91.104 Y90.609 E108.01157
G1 X91.626 Y90.141 E108.40972
G1 X92.172 Y89.702 E108.80787
G1 X92.741 Y89.293 E109.20602
G1 X93.331 Y88.916 E109.60417
G1 X93.941 Y88.571 E110.00232
G1 X94.568 Y88.260 E110.40047
G1 X95.212 Y87.983 E110.79862
G1 X95.870 Y87.741 E111.19677
G1 X96.539 Y87.536 E111.59492
G1 X97.219 Y87.367 E111.99307
G1 X97.907 Y87.235 E112.39122
G1 X98.601 Y87.140 E112.78937
G1 X99.300 Y87.083 E113.18752
G1 X99.993 Y87.064 E113.58182
G1 X100.350 Y87.084 E113.78479
G1 X100.707 Y87.084 E113.98781 F1800.000
G1 X101.399 Y87.140 E114.38210
G1 X102.093 Y87.235 E114.78025
G1 X102.781 Y87.367 E115.17840
G1 X103.461 Y87.536 E115.57655
G1 X104.130 Y87.741 E115.97471
G1 X104.788 Y87.983 E116.37285
G1 X105.432 Y88.260 E116.77100
G1 X106.059 Y88.571 E117.16915
G1 X106.669 Y88.916 E117.56730
G1 X107.259 Y89.293 E117.96545
G1 X107.828 Y89.702 E118.36360
G1 X108.374 Y90.141 E118.76175
G1 X108.896 Y90.609 E119.15990
G1 X109.391 Y91.104 E119.55805
G1 X109.859 Y91.626 E119.95620
G1 X110.298 Y92.172 E120.35435
G1 X110.707 Y92.741 E120.75250
G1 X111.084 Y93.331 E121.15065
G1 X111.429 Y93.941 E121.54880
G1 X111.740 Y94.568 E121.94695
G1 X112.017 Y95.212 E122.34510
G1 X112.259 Y95.870 E122.74325
G1 X112.464 Y96.539 E123.14140
G1 X112.633 Y97.219 E123.53955
G1 X112.765 Y97.907 E123.93770
G1 X112.860 Y98.601 E124.33585
G1 X112.917 Y99.300 E124.73400
G1 X112.936 Y100.000 E125.13215
G1 X112.917 Y100.700 E125.53030
G1 X112.860 Y101.399 E125.92845
G1 X112.765 Y102.093 E126.32660
G1 X112.633 Y102.781 E126.72475
G1 X112.464 Y103.461 E127.12290
G1 X112.259 Y104.130 E127.52105
G1 X112.017 Y104.788 E127.91920
G1 X111.740 Y105.432 E128.31735
G1 X111.429 Y106.059 E128.71550
G1 X111.084 Y106.669 E129.11365
G1 X110.707 Y107.259 E129.51180
G1 X110.298 Y107.828 E129.90995
G1 X109.859 Y108.374 E130.30810
G1 X109.197 Y109.091 E130.86254
G1 X108.804 Y109.057 F7800.000
G1 X107.994 Y93.305 F7800.000
G1 X106.695 Y92.006 E131.91895 F1800.000
G1 X103.486 Y90.074 F7800.000
G1 X109.926 Y96.514 E137.15605 F1800.000
G1 X110.421 Y98.286 E138.21399
G1 X101.714 Y89.579 E145.29448
G1 X100.276 Y89.419 E146.12638
G1 X110.588 Y99.730 E154.51164
G1 X110.566 Y100.986 E155.23367
G1 X99.014 Y89.434 E164.62717
G1 X97.886 Y89.583 E165.28156
G1 X110.417 Y102.114 E175.47131
G1 X110.169 Y103.143 E176.08009
G1 X96.857 Y89.831 E186.90514
G1 X95.908 Y90.160 E187.48227
G1 X109.840 Y104.092 E198.81077
G1 X109.437 Y104.966 E199.36439
G1 X95.034 Y90.563 E211.07640
G1 X94.224 Y91.030 E211.61412
G1 X108.969 Y105.776 E223.60488
G1 X108.445 Y106.529 E224.13250
G1 X93.471 Y91.555 E236.30946
G1 X92.785 Y92.147 E236.83019
G1 X107.853 Y107.215 E249.08303
G1 X107.215 Y107.853 E249.60237
G1 X92.147 Y92.785 E261.85521
G1 X91.555 Y93.471 E262.37593
G1 X106.529 Y108.445 E274.55290
G1 X105.776 Y108.969 E275.08052
G1 X91.030 Y94.224 E287.07127
G1 X90.563 Y95.034 E287.60899
G1 X104.966 Y109.437 E299.32101
G1 X104.092 Y109.840 E299.87462
G1 X90.160 Y95.908 E311.20312
G1 X89.831 Y96.857 E311.78025
